X: 1
T: Gypsy Rover    [G]
C: trad.
C: harmony: Anita Smisek
R: air, march
Z: 2019 John Chambers <jc:trillian.mit.edu>
N: lyrics from Clare Hurley
N: chords from https://www.irishmusicdaily.com/whistlin-gypsy-rover-lyrics-and-chords
M: C
L: 1/8
K: G
% %continueall
% - - - - - - - - - -
[V:1] D | "G"D2 G2 "D7"A2 B>A | "G"G2 D>D "D7"D4 | "G"D2 G2 "D"A2 B>c | "G"B4 A2 zA |
[V:2] B |    B4        c2 d>c |    B2 B>A A2  zB |    B2 B2    c2 d>e |    d4-d2 zc |
% - - - - - - - - - -
[V:1] "G"D2 G2 "D7"A2 B>c | "G" d2 "G7"B2 "C"G2- GA | "G"B2 B2 "C"A2 G>E | "G"D2 G2- "C"G2 E2 | "G"D4 "D7"z4 |]
[V:2]    B2 d2     d2 g>g |     g4           e2  c2 |    d4       c4     |    B4        c4    |    B4     z4 |]
% - - - - - - - - - -
[V:1] "G"D2 G2 "D7"A2 B>A | "G"G2 D2 "D7"D4 | "G"D2 G2 "D"A2 B>c | "G"B4 A2 zA |
[V:2]    B4        c2 d>c |    B4        A4 |    B2 B2    c2 d>e |    d4-d2 zc |
% - - - - - - - - - -
[V:1] "G"D>D G>G "D7"A2 B>c | "G" d2 "G7"B2 "C"G3 A | "G"B2 B>B "C"A2 G>E | "G"D2 G2- "C"G2 E2 | "G"D4 "(D7)"z3 |]
[V:2]    B>B B>B     d2 d>d |     g4           e3 c |    d4       c4     |    B4        c4    |    B4        z3 |]
% - - - - - - - - - -
%%text Either voice may be in any octave.
